X: 1
T:Farewell to Ballinascorney  "Arranged by Tommy Tully"
M:C|
L:1/8
Q:80
C:Traditional Irish
S:March
K:HP
|: e|
{g}A2{GAG}A3/2B/2|
{GdG}cf{gfg}fa3/4f/4|
{gef}e3/2c/2{G}A3/2B/2|  !
{GdG}cB{gBd}Be{g}A2{GAG}A3/2B/2|
{GdG}cf{gfg}fa3/4f/4|
{gef}e3/2c/2{g}B{d}c|  !
{G}A2{GAG}A:| |:
e|
{ag}a3/2g/2{a}fe|
{gcd}cf{gfg}fa3/4f/4|  !
{gef}e3/2c/2{G}A3/2B/2|
{GdG}cB{gBd}Be{ag}a3/2g/2{a}fe|
{gcd}cf{gfg}fa3/4f/4|  !
{gef}e3/2c/2{g}B{d}c|
{G}A2{GAG}A:|
